X:1
T:Go Forth at Christ’s Command
T:J. Howard Entwisle, 1897
T:Go Forth at Christ’s Command
T:Public Domain
T:Public Domain
T:Public Domain
C:J. Howard Entwisle, 1897
Z:Public Domain
%%score ( 1 2 ) ( 3 4 )
L:1/8
M:2/4
K:G
V:1 treble 
V:2 treble 
V:3 bass 
V:4 bass 
V:1
 D | [B,G]>D [DG][DA] | [DB]3 [DA] | [DB]>[DA] [DB][Dc] | [Gd]3 [Gd] | [Ge]>[Gd] [Gc][Ge] | %6
w: 1.~Go|at Christ’s com- mand,|forth to|ev- ’ry land, Through|loy- al-|ty to Christ Through|
w: 2.~Be|to help them win|strive to|con- quer sin, Through|loy- al-|ty to Christ, Through|
w: 3.~See!|tan’s ban- ners wave,|haste the|lost to save Through|loy- al-|ty to Christ, Through|
w: 4.~O|ren of the free!|this your|watch- word be: “Through|loy- al-|ty to Christ, Through|
 [Gd]2 [GB]2 | [Ac]>[Ac] [GB][GB] | [FA]3 D | [B,G]>D [DG][DA] | [DB]3 [DA] | [DB]>[DA] [DB][Dc] | %12
w: loy- al-|ty to Christ; Let|strong your|forts be To gain|vic- to-|ry, Through loy- al-|
w: loy- al-|ty to Christ; Point|out the|of light, Be strong|do the|right, Through loy- al-|
w: loy- al-|ty to Christ; Beat|back the|of sin, Press on|fight to|win, Through loy- al-|
w: loy- al-|ty to Christ”; Let|hills and|leys ring, While men|an- gels|sing, Through loy- al-|
 [Gd]3 [Gd] | [Ge]>[Gd] [Gc][Ge] | [Gd]>[GB] G[GA] | [GB]>[GB] [FA][DA] | [DG]4 || %17
w: ty, yes,|loy- al- ty, Through|loy- al- ty to|||
w: ty, yes,|loy- al- ty, Through|loy- al- ty to|On- ward, on- ward,|ar-|
w: ty, yes,|loy- al- ty, Through|loy- al- ty to|||
w: ty, yes,|loy- al- ty, Through|loy- al- ty to|||
"^Refrain" [FA]2 [GB]2 | [Ac]2 [GB]2 | [FA]>[^E^G] [FA][=GB] | [FA]3 D | [DG]2 [DA]2 | %22
w: |||||
w: my of|the Lord!|There’s naught to fear|while trust-|in His|
w: |||||
w: |||||
 [DB]2 [DA]2 | [DB]>[DB] [G^c][Gc] | [Fd]3 |] %25
w: |||
w: Word; Go|forth to fight the|wrong,|
w: |||
w: |||
V:2
 D | x3/2 D/ x2 | x4 | x4 | x4 | x4 | x4 | x4 | x3 D | x3/2 D/ x2 | x4 | x4 | x4 | x4 | x2 G x | %15
w: forth|Go|||||||ef-|the|||||Christ.|
w: brave|Who|||||||path|to|||||Christ.|
w: Sa-|O|||||||hosts|the|||||Christ.|
w: child-|Let|||||||val-|and|||||Christ.|
 x4 | x4 || x4 | x4 | x4 | x3 D | x4 | x4 | x4 | x3 |] %25
w: ||||||||||
w: |||||ing|||||
w: ||||||||||
w: ||||||||||
V:3
 D, | [G,,D,]>D, [B,,G,][D,F,] | G,3 [D,F,] | G,>[D,F,] G,[G,A,] | [G,B,]3 [G,B,] | %5
w: ~|~ ~ ~ ~|~ ~|~ ~ ~ ~|~ ~|
 [C,C]>[D,B,] [E,C][C,C] | [G,B,]2 [G,D]2 | [F,D]>[F,D] [G,D][G,D] | [D,D]3 D, | %9
w: ~ ~ ~ ~|~ ~|Go forth to fight|the wrong,|
 [G,,D,]>D, [B,,G,][D,F,] | G,3 [D,F,] | G,>[D,F,] G,[G,A,] | [G,B,]3 [G,B,] | %13
w: shout the vic- tor’s|Through loy-|ty, yes, loy- al-|loy- al-|
 [C,C]>[D,B,] [E,C][C,C] | [G,B,]>[G,D] [B,,D][C,E] | [D,D]>[D,D] [D,C][D,C] | [G,,B,]4 || %17
w: ty to Christ. *||||
 [D,D]2 [D,D]2 | [D,D]2 [D,D]2 | [D,D]>[D,D] [D,D][D,D] | [D,D]3 D, | [B,,G,]2 [D,F,]2 | %22
w: |||||
 G,2 [D,F,]2 | G,>G, [E,A,][E,A,] | [D,A,]3 |] %25
w: |||
V:4
 D, | x3/2 D,/ x2 | G,3 x | G,3/2G, x3/2 | x4 | x4 | x4 | x4 | x3 D, | x3/2 D,/ x2 | G,3 x | %11
w: ~|~|~|~ ~|||||And|song,|al-|
 G,3/2G, x3/2 | x4 | x4 | x4 | x4 | x4 || x4 | x4 | x4 | x3 D, | x4 | G,2 x2 | G,>G, x2 | x3 |] %25
w: ty, Through||||||||||||||

